assets/images/logo-footer.svg

<svg height="29" viewBox="0 0 188 29" width="188" xmlns="http://www.w3.org/2000/svg"><g fill="#505995" transform=""><path d="m4.1 8.9h3c1.9 0 3-1.1 3-2.6 0-1.7-1.2-2.6-3.1-2.6h-2.9-3.8v-3.4h7c4.1 0 6.6 2.4 6.6 5.9 0 4-3.1 6-6.9 6h-2.9v5.1h-3.8v-8.3z"/><path d="m22.1 8.9c0-4.9 3.8-8.9 9.1-8.9s9.1 3.9 9.1 8.8-3.8 8.9-9.1 8.9-9.1-3.9-9.1-8.8zm14.2 0c0-3-2.2-5.4-5.2-5.4s-5.1 2.4-5.1 5.3 2.2 5.4 5.2 5.4 5.1-2.3 5.1-5.3z"/><path d="m51 .3h3.8v13.7h8.6v3.4h-12.4z"/><path d="m77.1 10.7-6.6-10.4h4.4l4.1 6.9 4.2-6.9h4.3l-6.6 10.3v6.8h-3.8z"/><path d="m97.2.3h4.1l4.5 7.3 4.5-7.3h4.1v17.2h-3.7v-11.3l-4.8 7.3h-.1l-4.8-7.3v11.1h-3.7v-17z"/><path d="m135.5 10.3-2.3-5.6-2.3 5.6-1.3 3.3-1.6 3.8h-3.8l7.4-17.3h3.5l7.4 17.3h-3.9l-1.6-3.8z"/><path d="m154.2 3.8h-5.2v-3.5h14.2v3.5h-5.2v13.7h-3.8z"/><path d="m173.2.3h3.8v6.8h7v-6.8h3.8v17.2h-3.8v-6.9h-7v6.9h-3.8z"/><g transform="translate(0 23)"><path d="m2.5 1v4.3h-.9v-4.3h-1.6v-.8h4.1v.8z"/><path d="m10.5 5.3v-2.1h-2.7v2.1h-.9v-5.1h.9v2.2h2.7v-2.2h.9v5.1z"/><path d="m15.7 1v1.4h2.5v.8h-2.5v1.4h2.8v.8h-3.7v-5.1h3.6v.7z"/><path d="m28.4.4c.3.1.6.2.8.4l-.4.8c-.3-.2-.5-.3-.8-.4s-.5-.1-.7-.1c-.3 0-.5 0-.6.1s-.2.2-.2.4c0 .1 0 .3.1.4s.2.2.4.2c.1.1.3.1.6.2s.6.2.8.3.4.2.6.4.2.4.2.8c0 .3-.1.6-.2.8-.2.2-.4.4-.7.5s-.6.2-1 .2-.8-.1-1.1-.2-.7-.3-.9-.6l.4-.7c.3.2.5.4.8.5s.6.2.9.2.5-.1.7-.2.2-.3.2-.5 0-.3-.1-.4-.2-.2-.4-.2c-.1-.1-.3-.1-.6-.2s-.6-.2-.8-.3-.4-.2-.5-.4c-.2-.2-.2-.4-.2-.7s.1-.5.2-.7.4-.4.6-.5.6-.2 1-.2c.2-.1.5 0 .9.1z"/><path d="m33.3 1v1.4h2.5v.8h-2.5v1.4h2.8v.8h-3.7v-5.1h3.6v.7z"/><path d="m42.6.5c.3.1.6.3.9.6l-.5.5c-.2-.2-.4-.4-.7-.5s-.5-.2-.8-.2-.6.1-.9.2c-.3.2-.5.4-.7.6s-.2.6-.2.9.1.6.2.9.4.5.7.6c.3.2.6.2.9.2.2 0 .5-.1.7-.2s.5-.3.7-.4l.5.6c-.3.3-.6.5-.9.6s-.7.2-1 .2c-.5 0-.9-.1-1.3-.3s-.7-.5-.9-.9-.3-.8-.3-1.3.1-.9.3-1.3.6-.7 1-.9.9-.3 1.3-.3c.3.1.6.2 1 .4z"/><path d="m50.5 4.4c-.2.3-.4.6-.8.7-.3.2-.7.3-1.2.3s-.8-.1-1.2-.3c-.3-.2-.6-.4-.8-.7s-.3-.7-.3-1.1v-3h.8v3c0 .4.1.8.4 1 .2.2.6.4 1 .4s.7-.1 1-.4c.2-.2.4-.6.4-1v-3h.9v3c.1.4 0 .7-.2 1.1z"/><path d="m56.5 3.8s-.1 0-.2 0h-1.3v1.5h-.9v-5.1h2.1c.6 0 1.1.2 1.5.5s.5.7.5 1.3c0 .4-.1.7-.3 1s-.4.5-.8.6l1.1 1.7h-1zm.6-1c.2-.2.3-.4.3-.8 0-.3-.1-.6-.3-.7-.2-.2-.5-.2-.9-.2h-1.2v2h1.2c.4-.1.7-.2.9-.3z"/><path d="m61.6 5.3v-5.1h.9v5.1z"/><path d="m67.8 1v4.3h-.9v-4.3h-1.6v-.8h4.1v.8z"/><path d="m72.2 5.3v-5.1h.9v5.1z"/><path d="m77.4 1v1.4h2.5v.8h-2.5v1.4h2.8v.8h-3.7v-5.1h3.6v.7z"/><path d="m86.1.4c.3.1.6.2.8.4l-.4.8c-.3-.2-.5-.3-.8-.4s-.5-.1-.7-.1c-.3 0-.5 0-.6.1s-.2.2-.2.4c0 .1 0 .3.1.4s.2.2.4.2.3.1.6.2.6.2.8.3.4.2.5.4c.2.2.2.4.2.8 0 .3-.1.6-.2.8-.2.2-.4.4-.7.5s-.6.2-1 .2-.8-.1-1.1-.2c-.4-.1-.7-.3-.9-.6l.4-.7c.3.2.5.4.8.5s.6.2.9.2.5-.1.7-.2.2-.3.2-.5 0-.3-.1-.4-.2-.2-.4-.2c-.1-.1-.3-.1-.6-.2s-.6-.2-.8-.3-.4-.2-.5-.4c-.2-.2-.2-.4-.2-.7s.1-.5.2-.7.4-.4.6-.5.6-.2 1-.2c.4-.1.7 0 1 .1z"/><path d="m96 1v4.3h-.9v-4.3h-1.6v-.8h4.1v.8z"/><path d="m103.8.6c.4.2.7.5 1 .9.2.4.4.8.4 1.3s-.1.9-.4 1.3c-.2.4-.6.7-1 .9s-.9.3-1.4.3-.9-.1-1.4-.3-.7-.5-1-.9c-.2-.4-.4-.8-.4-1.3s.1-.9.4-1.3c.2-.4.6-.7 1-.9s.9-.3 1.4-.3c.6-.1 1 .1 1.4.3zm-2.2.6c-.3.2-.5.4-.7.6-.2.3-.2.6-.2.9s.1.6.2.9c.2.3.4.5.7.7s.6.2.9.2.6-.1.9-.2c.3-.2.5-.4.7-.7s.2-.6.2-.9-.1-.6-.2-.9c-.2-.3-.4-.5-.7-.6-.3-.2-.6-.2-.9-.2s-.7.1-.9.2z"/><path d="m109.9 3.1-.9.9v1.3h-.9v-5.1h.9v2.6l2.4-2.6h1l-2 2.2 2.1 2.9h-1z"/><path d="m116.4 1v1.4h2.5v.8h-2.5v1.4h2.8v.8h-3.7v-5.1h3.6v.7z"/><path d="m126 5.3-2.7-3.6v3.6h-.9v-5.1h.8l2.7 3.6v-3.6h.8v5.1z"/><path d="m137.9.7c.3.3.5.7.5 1.3s-.2 1-.5 1.3-.8.5-1.5.5h-1.2v1.5h-.9v-5.1h2c.7.1 1.2.2 1.6.5zm-2.7 2.3h1.1c.4 0 .7-.1.9-.3s.3-.4.3-.8c0-.3-.1-.6-.3-.7-.2-.2-.5-.2-.9-.2h-1.1z"/><path d="m144.4 4.5v.8h-3v-5.1h.9v4.3z"/><path d="m148.2 4.2-.5 1.1h-.9l2.2-5.1h.9l2.2 5.1h-.9l-.5-1.1zm1.3-3-1 2.2h1.9z"/><path d="m156.3 1v4.3h-.9v-4.3h-1.6v-.8h4.1v.8z"/><path d="m161.7 1v1.5h2.3v.8h-2.3v2.1h-.9v-5.1h3.4v.8h-2.5z"/><path d="m170.7.6c.4.2.7.5 1 .9.2.4.4.8.4 1.3s-.1.9-.4 1.3c-.2.4-.6.7-1 .9s-.9.3-1.4.3-.9-.1-1.4-.3-.7-.5-1-.9c-.2-.4-.4-.8-.4-1.3s.1-.9.4-1.3c.2-.4.6-.7 1-.9s.9-.3 1.4-.3c.6-.1 1 .1 1.4.3zm-2.2.6c-.3.2-.5.4-.7.6-.2.3-.2.6-.2.9s.1.6.2.9c.2.3.4.5.7.7s.6.2.9.2.6-.1.9-.2c.3-.2.5-.4.7-.7s.2-.6.2-.9-.1-.6-.2-.9c-.2-.3-.4-.5-.7-.6-.3-.2-.6-.2-.9-.2s-.6.1-.9.2z"/><path d="m177.4 3.8s-.1 0-.2 0h-1.2v1.5h-.9v-5.1h2.1c.6 0 1.1.2 1.5.5s.5.7.5 1.3c0 .4-.1.7-.3 1s-.4.5-.8.6l1.1 1.7h-1zm.7-1c.2-.2.3-.4.3-.8 0-.3-.1-.6-.3-.7-.2-.2-.5-.2-.9-.2h-1.2v2h1.2c.4-.1.7-.2.9-.3z"/><path d="m187.1 5.3v-3.8l-1.6 3.2h-.6l-1.6-3.2v3.8h-.8v-5.1h1l1.7 3.4 1.7-3.4h1v5.1z"/></g></g></svg>

<?xml version="1.0" encoding="UTF-8"?>
<svg width="188px" height="29px" viewBox="0 0 188 29" version="1.1" xmlns="http://www.w3.org/2000/svg" xmlns:xlink="http://www.w3.org/1999/xlink">
    <!-- Generator: Sketch 50 (54983) - http://www.bohemiancoding.com/sketch -->
    <title>logo-footer</title>
    <desc>Created with Sketch.</desc>
    <defs></defs>
    <g id="Page-1" stroke="none" stroke-width="1" fill="none" fill-rule="evenodd">
        <g id="Website-1-Copy" transform="translate(-160.000000, -10486.000000)" fill="#505995" fill-rule="nonzero">
            <g id="footer-blk" transform="translate(0.000000, 10416.000000)">
                <g id="logo-footer" transform="translate(160.000000, 70.000000)">
                    <path d="M4.1,8.9 L7.1,8.9 C9,8.9 10.1,7.8 10.1,6.3 C10.1,4.6 8.9,3.7 7,3.7 L4.1,3.7 L0.3,3.7 L0.3,0.3 L7.3,0.3 C11.4,0.3 13.9,2.7 13.9,6.2 C13.9,10.2 10.8,12.2 7,12.2 L4.1,12.2 L4.1,17.3 L0.3,17.3 L0.3,9 L4.1,8.9 Z" id="Shape"></path>
                    <path d="M22.1,8.9 C22.1,4 25.9,0 31.2,0 C36.5,0 40.3,3.9 40.3,8.8 C40.3,13.7 36.5,17.7 31.2,17.7 C25.9,17.7 22.1,13.8 22.1,8.9 Z M36.3,8.9 C36.3,5.9 34.1,3.5 31.1,3.5 C28.1,3.5 26,5.9 26,8.8 C26,11.7 28.2,14.2 31.2,14.2 C34.2,14.2 36.3,11.9 36.3,8.9 Z" id="Shape"></path>
                    <polygon id="Shape" points="51 0.3 54.8 0.3 54.8 14 63.4 14 63.4 17.4 51 17.4"></polygon>
                    <polygon id="Shape" points="77.1 10.7 70.5 0.3 74.9 0.3 79 7.2 83.2 0.3 87.5 0.3 80.9 10.6 80.9 17.4 77.1 17.4 77.1 10.7"></polygon>
                    <polygon id="Shape" points="97.2 0.3 101.3 0.3 105.8 7.6 110.3 0.3 114.4 0.3 114.4 17.5 110.7 17.5 110.7 6.2 105.9 13.5 105.8 13.5 101 6.2 101 17.3 97.3 17.3 97.3 0.3"></polygon>
                    <polygon id="Shape" points="135.5 10.3 133.2 4.7 130.9 10.3 129.6 13.6 128 17.4 124.2 17.4 131.6 0.1 135.1 0.1 142.5 17.4 138.6 17.4 137 13.6"></polygon>
                    <polygon id="Shape" points="154.2 3.8 149 3.8 149 0.3 163.2 0.3 163.2 3.8 158 3.8 158 17.5 154.2 17.5"></polygon>
                    <polygon id="Shape" points="173.2 0.3 177 0.3 177 7.1 184 7.1 184 0.3 187.8 0.3 187.8 17.5 184 17.5 184 10.6 177 10.6 177 17.5 173.2 17.5"></polygon>
                    <g id="Group" transform="translate(0.000000, 23.000000)">
                        <polygon id="Shape" points="2.5 1 2.5 5.3 1.6 5.3 1.6 1 0 1 0 0.2 4.1 0.2 4.1 1"></polygon>
                        <polygon id="Shape" points="10.5 5.3 10.5 3.2 7.8 3.2 7.8 5.3 6.9 5.3 6.9 0.2 7.8 0.2 7.8 2.4 10.5 2.4 10.5 0.2 11.4 0.2 11.4 5.3 10.5 5.3"></polygon>
                        <polygon id="Shape" points="15.7 1 15.7 2.4 18.2 2.4 18.2 3.2 15.7 3.2 15.7 4.6 18.5 4.6 18.5 5.4 14.8 5.4 14.8 0.3 18.4 0.3 18.4 1"></polygon>
                        <path d="M28.4,0.4 C28.7,0.5 29,0.6 29.2,0.8 L28.8,1.6 C28.5,1.4 28.3,1.3 28,1.2 C27.7,1.1 27.5,1.1 27.3,1.1 C27,1.1 26.8,1.1 26.7,1.2 C26.6,1.3 26.5,1.4 26.5,1.6 C26.5,1.7 26.5,1.9 26.6,2 C26.7,2.1 26.8,2.2 27,2.2 C27.1,2.3 27.3,2.3 27.6,2.4 C27.9,2.5 28.2,2.6 28.4,2.7 C28.6,2.8 28.8,2.9 29,3.1 C29.2,3.3 29.2,3.5 29.2,3.9 C29.2,4.2 29.1,4.5 29,4.7 C28.8,4.9 28.6,5.1 28.3,5.2 C28,5.3 27.7,5.4 27.3,5.4 C26.9,5.4 26.5,5.3 26.2,5.2 C25.9,5.1 25.5,4.9 25.3,4.6 L25.7,3.9 C26,4.1 26.2,4.3 26.5,4.4 C26.8,4.5 27.1,4.6 27.4,4.6 C27.7,4.6 27.9,4.5 28.1,4.4 C28.3,4.3 28.3,4.1 28.3,3.9 C28.3,3.7 28.3,3.6 28.2,3.5 C28.1,3.4 28,3.3 27.8,3.3 C27.7,3.2 27.5,3.2 27.2,3.1 C26.9,3 26.6,2.9 26.4,2.8 C26.2,2.7 26,2.6 25.9,2.4 C25.7,2.2 25.7,2 25.7,1.7 C25.7,1.4 25.8,1.2 25.9,1 C26,0.8 26.3,0.6 26.5,0.5 C26.7,0.4 27.1,0.3 27.5,0.3 C27.7,0.2 28,0.3 28.4,0.4 Z" id="Shape"></path>
                        <polygon id="Shape" points="33.3 1 33.3 2.4 35.8 2.4 35.8 3.2 33.3 3.2 33.3 4.6 36.1 4.6 36.1 5.4 32.4 5.4 32.4 0.3 36 0.3 36 1"></polygon>
                        <path d="M42.6,0.5 C42.9,0.6 43.2,0.8 43.5,1.1 L43,1.6 C42.8,1.4 42.6,1.2 42.3,1.1 C42,1 41.8,0.9 41.5,0.9 C41.2,0.9 40.9,1 40.6,1.1 C40.3,1.3 40.1,1.5 39.9,1.7 C39.7,1.9 39.7,2.3 39.7,2.6 C39.7,2.9 39.8,3.2 39.9,3.5 C40,3.8 40.3,4 40.6,4.1 C40.9,4.3 41.2,4.3 41.5,4.3 C41.7,4.3 42,4.2 42.2,4.1 C42.4,4 42.7,3.8 42.9,3.7 L43.4,4.3 C43.1,4.6 42.8,4.8 42.5,4.9 C42.2,5 41.8,5.1 41.5,5.1 C41,5.1 40.6,5 40.2,4.8 C39.8,4.6 39.5,4.3 39.3,3.9 C39.1,3.5 39,3.1 39,2.6 C39,2.1 39.1,1.7 39.3,1.3 C39.5,0.9 39.9,0.6 40.3,0.4 C40.7,0.2 41.2,0.1 41.6,0.1 C41.9,0.2 42.2,0.3 42.6,0.5 Z" id="Shape"></path>
                        <path d="M50.5,4.4 C50.3,4.7 50.1,5 49.7,5.1 C49.4,5.3 49,5.4 48.5,5.4 C48,5.4 47.7,5.3 47.3,5.1 C47,4.9 46.7,4.7 46.5,4.4 C46.3,4.1 46.2,3.7 46.2,3.3 L46.2,0.3 L47,0.3 L47,3.3 C47,3.7 47.1,4.1 47.4,4.3 C47.6,4.5 48,4.7 48.4,4.7 C48.8,4.7 49.1,4.6 49.4,4.3 C49.6,4.1 49.8,3.7 49.8,3.3 L49.8,0.3 L50.7,0.3 L50.7,3.3 C50.8,3.7 50.7,4 50.5,4.4 Z" id="Shape"></path>
                        <path d="M56.5,3.8 C56.5,3.8 56.4,3.8 56.3,3.8 L55,3.8 L55,5.3 L54.1,5.3 L54.1,0.2 L56.2,0.2 C56.8,0.2 57.3,0.4 57.7,0.7 C58.1,1 58.2,1.4 58.2,2 C58.2,2.4 58.1,2.7 57.9,3 C57.7,3.3 57.5,3.5 57.1,3.6 L58.2,5.3 L57.2,5.3 L56.5,3.8 Z M57.1,2.8 C57.3,2.6 57.4,2.4 57.4,2 C57.4,1.7 57.3,1.4 57.1,1.3 C56.9,1.1 56.6,1.1 56.2,1.1 L55,1.1 L55,3.1 L56.2,3.1 C56.6,3 56.9,2.9 57.1,2.8 Z" id="Shape"></path>
                        <polygon id="Shape" points="61.6 5.3 61.6 0.2 62.5 0.2 62.5 5.3 61.6 5.3"></polygon>
                        <polygon id="Shape" points="67.8 1 67.8 5.3 66.9 5.3 66.9 1 65.3 1 65.3 0.2 69.4 0.2 69.4 1"></polygon>
                        <polygon id="Shape" points="72.2 5.3 72.2 0.2 73.1 0.2 73.1 5.3 72.2 5.3"></polygon>
                        <polygon id="Shape" points="77.4 1 77.4 2.4 79.9 2.4 79.9 3.2 77.4 3.2 77.4 4.6 80.2 4.6 80.2 5.4 76.5 5.4 76.5 0.3 80.1 0.3 80.1 1"></polygon>
                        <path d="M86.1,0.4 C86.4,0.5 86.7,0.6 86.9,0.8 L86.5,1.6 C86.2,1.4 86,1.3 85.7,1.2 C85.4,1.1 85.2,1.1 85,1.1 C84.7,1.1 84.5,1.1 84.4,1.2 C84.3,1.3 84.2,1.4 84.2,1.6 C84.2,1.7 84.2,1.9 84.3,2 C84.4,2.1 84.5,2.2 84.7,2.2 C84.9,2.2 85,2.3 85.3,2.4 C85.6,2.5 85.9,2.6 86.1,2.7 C86.3,2.8 86.5,2.9 86.6,3.1 C86.8,3.3 86.8,3.5 86.8,3.9 C86.8,4.2 86.7,4.5 86.6,4.7 C86.4,4.9 86.2,5.1 85.9,5.2 C85.6,5.3 85.3,5.4 84.9,5.4 C84.5,5.4 84.1,5.3 83.8,5.2 C83.4,5.1 83.1,4.9 82.9,4.6 L83.3,3.9 C83.6,4.1 83.8,4.3 84.1,4.4 C84.4,4.5 84.7,4.6 85,4.6 C85.3,4.6 85.5,4.5 85.7,4.4 C85.9,4.3 85.9,4.1 85.9,3.9 C85.9,3.7 85.9,3.6 85.8,3.5 C85.7,3.4 85.6,3.3 85.4,3.3 C85.3,3.2 85.1,3.2 84.8,3.1 C84.5,3 84.2,2.9 84,2.8 C83.8,2.7 83.6,2.6 83.5,2.4 C83.3,2.2 83.3,2 83.3,1.7 C83.3,1.4 83.4,1.2 83.5,1 C83.6,0.8 83.9,0.6 84.1,0.5 C84.3,0.4 84.7,0.3 85.1,0.3 C85.5,0.2 85.8,0.3 86.1,0.4 Z" id="Shape"></path>
                        <polygon id="Shape" points="96 1 96 5.3 95.1 5.3 95.1 1 93.5 1 93.5 0.2 97.6 0.2 97.6 1"></polygon>
                        <path d="M103.8,0.6 C104.2,0.8 104.5,1.1 104.8,1.5 C105,1.9 105.2,2.3 105.2,2.8 C105.2,3.3 105.1,3.7 104.8,4.1 C104.6,4.5 104.2,4.8 103.8,5 C103.4,5.2 102.9,5.3 102.4,5.3 C101.9,5.3 101.5,5.2 101,5 C100.5,4.8 100.3,4.5 100,4.1 C99.8,3.7 99.6,3.3 99.6,2.8 C99.6,2.3 99.7,1.9 100,1.5 C100.2,1.1 100.6,0.8 101,0.6 C101.4,0.4 101.9,0.3 102.4,0.3 C103,0.2 103.4,0.4 103.8,0.6 Z M101.6,1.2 C101.3,1.4 101.1,1.6 100.9,1.8 C100.7,2.1 100.7,2.4 100.7,2.7 C100.7,3 100.8,3.3 100.9,3.6 C101.1,3.9 101.3,4.1 101.6,4.3 C101.9,4.5 102.2,4.5 102.5,4.5 C102.8,4.5 103.1,4.4 103.4,4.3 C103.7,4.1 103.9,3.9 104.1,3.6 C104.3,3.3 104.3,3 104.3,2.7 C104.3,2.4 104.2,2.1 104.1,1.8 C103.9,1.5 103.7,1.3 103.4,1.2 C103.1,1 102.8,1 102.5,1 C102.2,1 101.8,1.1 101.6,1.2 Z" id="Shape"></path>
                        <polygon id="Shape" points="109.9 3.1 109 4 109 5.3 108.1 5.3 108.1 0.2 109 0.2 109 2.8 111.4 0.2 112.4 0.2 110.4 2.4 112.5 5.3 111.5 5.3"></polygon>
                        <polygon id="Shape" points="116.4 1 116.4 2.4 118.9 2.4 118.9 3.2 116.4 3.2 116.4 4.6 119.2 4.6 119.2 5.4 115.5 5.4 115.5 0.3 119.1 0.3 119.1 1"></polygon>
                        <polygon id="Shape" points="126 5.3 123.3 1.7 123.3 5.3 122.4 5.3 122.4 0.2 123.2 0.2 125.9 3.8 125.9 0.2 126.7 0.2 126.7 5.3 126 5.3"></polygon>
                        <path d="M137.9,0.7 C138.2,1 138.4,1.4 138.4,2 C138.4,2.6 138.2,3 137.9,3.3 C137.6,3.6 137.1,3.8 136.4,3.8 L135.2,3.8 L135.2,5.3 L134.3,5.3 L134.3,0.2 L136.3,0.2 C137,0.3 137.5,0.4 137.9,0.7 Z M135.2,3 L136.3,3 C136.7,3 137,2.9 137.2,2.7 C137.4,2.5 137.5,2.3 137.5,1.9 C137.5,1.6 137.4,1.3 137.2,1.2 C137,1 136.7,1 136.3,1 L135.2,1 L135.2,3 Z" id="Shape"></path>
                        <polygon id="Shape" points="144.4 4.5 144.4 5.3 141.4 5.3 141.4 0.2 142.3 0.2 142.3 4.5 144.4 4.5"></polygon>
                        <path d="M148.2,4.2 L147.7,5.3 L146.8,5.3 L149,0.2 L149.9,0.2 L152.1,5.3 L151.2,5.3 L150.7,4.2 L148.2,4.2 Z M149.5,1.2 L148.5,3.4 L150.4,3.4 L149.5,1.2 Z" id="Shape"></path>
                        <polygon id="Shape" points="156.3 1 156.3 5.3 155.4 5.3 155.4 1 153.8 1 153.8 0.2 157.9 0.2 157.9 1"></polygon>
                        <polygon id="Shape" points="161.7 1 161.7 2.5 164 2.5 164 3.3 161.7 3.3 161.7 5.4 160.8 5.4 160.8 0.3 164.2 0.3 164.2 1.1 161.7 1.1"></polygon>
                        <path d="M170.7,0.6 C171.1,0.8 171.4,1.1 171.7,1.5 C171.9,1.9 172.1,2.3 172.1,2.8 C172.1,3.3 172,3.7 171.7,4.1 C171.5,4.5 171.1,4.8 170.7,5 C170.3,5.2 169.8,5.3 169.3,5.3 C168.8,5.3 168.4,5.2 167.9,5 C167.4,4.8 167.2,4.5 166.9,4.1 C166.7,3.7 166.5,3.3 166.5,2.8 C166.5,2.3 166.6,1.9 166.9,1.5 C167.1,1.1 167.5,0.8 167.9,0.6 C168.3,0.4 168.8,0.3 169.3,0.3 C169.9,0.2 170.3,0.4 170.7,0.6 Z M168.5,1.2 C168.2,1.4 168,1.6 167.8,1.8 C167.6,2.1 167.6,2.4 167.6,2.7 C167.6,3 167.7,3.3 167.8,3.6 C168,3.9 168.2,4.1 168.5,4.3 C168.8,4.5 169.1,4.5 169.4,4.5 C169.7,4.5 170,4.4 170.3,4.3 C170.6,4.1 170.8,3.9 171,3.6 C171.2,3.3 171.2,3 171.2,2.7 C171.2,2.4 171.1,2.1 171,1.8 C170.8,1.5 170.6,1.3 170.3,1.2 C170,1 169.7,1 169.4,1 C169.1,1 168.8,1.1 168.5,1.2 Z" id="Shape"></path>
                        <path d="M177.4,3.8 C177.4,3.8 177.3,3.8 177.2,3.8 L176,3.8 L176,5.3 L175.1,5.3 L175.1,0.2 L177.2,0.2 C177.8,0.2 178.3,0.4 178.7,0.7 C179.1,1 179.2,1.4 179.2,2 C179.2,2.4 179.1,2.7 178.9,3 C178.7,3.3 178.5,3.5 178.1,3.6 L179.2,5.3 L178.2,5.3 L177.4,3.8 Z M178.1,2.8 C178.3,2.6 178.4,2.4 178.4,2 C178.4,1.7 178.3,1.4 178.1,1.3 C177.9,1.1 177.6,1.1 177.2,1.1 L176,1.1 L176,3.1 L177.2,3.1 C177.6,3 177.9,2.9 178.1,2.8 Z" id="Shape"></path>
                        <polygon id="Shape" points="187.1 5.3 187.1 1.5 185.5 4.7 184.9 4.7 183.3 1.5 183.3 5.3 182.5 5.3 182.5 0.2 183.5 0.2 185.2 3.6 186.9 0.2 187.9 0.2 187.9 5.3 187.1 5.3"></polygon>
                    </g>
                </g>
            </g>
        </g>
    </g>
</svg>
